X:1
T:Donné me fut
T:Donné me fut
T:Jean de Lattre
T:Source : Le Parangon des Chansons---VIIIième Livre---Lyon---J.Moderne---1541. Editor : André Vierendeels (08/12/14).
C:Jean de Lattre
%%score [ 1 [ 2 3 ] 4 ]
L:1/8
Q:1/4=120
M:2/2
K:C
V:1 treble nm="Superius" snm="S"
V:2 treble-8 nm="Tenor 1" snm="T 1"
V:3 treble-8 nm="Tenor 2" snm="T 2"
V:4 bass nm="Bassus" snm="B"
V:1
 A8 | A4 G4 | F4 A4 | AG AB c2 c2 | B2 G2 A4 | G6 G2 | F2 F2 ED EF | G6 F2 | E2 D2 D2 C2 | D8 :: %10
w: Don-|né me|fut des|cieulx _ _ _ _ à|ma nais- san-|ce, ung|tout seul poinct _ _ _|_ pour|me fai- re dou-|loir,|
w: Cest|u- ne|bas- s'et|pe- * * * * ti-|te puis- san-|ce, en|ung grant cueur _ _ _|_ rem-|ply de grant vou-|loir.|
 z2 F2 F2 F2 | E2 c2 c2 c2 | B2 G2 A2 B2 | c2 c2 G2 c2 | B2 A4 G2 | A4 z4 | G8 | A6 G2 | F2 E2 D4 | %19
w: Tan- dant tous-|iours, tan- dant tous-|iours plus à fai-|* re va- loir|aul- tre que|soy,|O,|fem- me|for- tu- né-|
w: |||||||||
 C4 z2 E2 | F4 G4 | E4 c4 | c2 c2 B2 A2- | A2 G2 A3 G/F/ | E4 c4- | c2 B2 A4 | G2 G2 G2 G2 | %27
w: e, con-|ten- te|toy car|en- co- re mieulx|_ _ vault _ _|_ ung|_ grant vou-|loir sans puis- san-|
w: ||||||||
 A2 G2 F4 | E4 z2 B2 | B2 B2 AG AB | c2 c2 B2 A2 | A2 G2 A3 G/F/ | E3 E E2 E2 | DC DE F3 F | %34
w: ce don- né-|e, que|grant puis- san- * * *|ce où bon vou-|loir def- fault, _ _|_ que grant puis-|san- * * * ce où|
w: |||||||
 E2 D2 D2 C2 | D8 :| %36
w: bon vou- loir def-|fault.|
w: ||
V:2
 f8 | f4 d4 | d4 f4 | fe fg a3 g | f2 e4 d2 | e6 e2 | d2 d2 c4 | B4 c4- | c2 B2 A2 A2 | A8 :: %10
w: Don-|né me|fut des|cieulx _ _ _ _ à|ma nais- san-|ce, ung|tout seul point|pour me|_ fai- re dou-|loir,|
w: Cest|u- ne|bas- s'et|pe- * * * ti- *|te puis- san-|ce, en|ung grant cueur|rem- *|ply de grant vou-|loir.|
 z2 d2 d2 d2 | cB cd ed ef | g2 g2 f2 d2 | e2 e2 c2 g2 | f2 f2 e3 d | c3 B/A/ B4 | e8 | e6 e2 | %18
w: Tan- dant tous-|iours _ _ _ _ _ _ _|_ plus à fai-|re va- loir aultre|que que soy, _|_ _ _ _|O,|fem- me|
w: ||||||||
 c2 c2 A4- | A4 G2 G2 | d4 d4 | cB cd e2 e2 | e2 g2 f4 | e4 c4 | z2 e3 d cB | A2 G2 A4 | %26
w: for- tu- né|_ e, con-|ten- te|toy _ _ _ _ car|en- co- re|mieulx vault|ung _ _ _|_ grant vou-|
w: ||||||||
 B2 e2 e2 g2 | f2 e2 dc d2 | e3 d/c/ B2 g2 | g2 g2 fe fg | a2 g2 f2 f2 | e2 e2 c4 | z2 c2 c2 c2 | %33
w: loir sans puis- san-|ce don- né- * *|* * * e, que|grant puis- san- * * *|ce où bon vou-|loir def- fault,|que grant puis-|
w: |||||||
"^b""^b" BA Bc d2 c2 |"^b""^b" B2 B2 A2 A2 | F8 :| %36
w: san- * * * ce où|bon vou- loir def-|fault.|
w: |||
V:3
 d8 | c4 B4 | A4 d4 | c6 e2 | d2 c4 BA | B4 B2 c2 | A4 A4 | G6 A2 | G2 F2 E2 E2 | D8 :: %10
w: Don-|né me|fut des|cieulx à|ma nais- san- *|ce, ung tout|seul point|pour me|fai- * re dou-|loir,|
w: Cest|u- ne|bas- s'et|pe- ti-|te puis- san- *|ce, en ung|grant cueur|rem- *|ply de grant vou-|loir.|
 z2 A2 A2 A2 | AG AB c2 c2 | e2 e2 d2 d2 | c4 e4 | d2 d2 B4 | A3 G/F/ E4 | B8 | c6 B2 | A2 G2 F4 | %19
w: Tan- dant tous-|iours _ _ _ _ plus|à fai- re va-|loir aul-|tre que soy,|_ _ _ _|O,|fem- me|for- tu- né-|
w: |||||||||
 E6 c2 | A4 B4 | A2 A2 cB cd | e4 d2 c2 | B4 AG AB | c2 c2 c2 AB | cd e4 d2 | e2 B2 B2 e2 | %27
w: e, con-|ten- te|toy car en- * * *|co- * re|mieulx vault _ _ _|_ ung grant vou- *||loir sans puis- san-|
w: ||||||||
 dc c4 B2 | c3 B/A/ G4 | z2 G2 c2 c2 | c2 e2 d2 c2 | B2 B2 AG AB | c4 z2 C2 | F2 F2 F2 A2 | %34
w: * * ce don-|né- * * e,|que grant puis-|san- ce'où- bon vou-|loir def- fault, _ _ _|_ que|grant puis- san- ce'où|
w: |||||||
 G2 F2 E2 E2 | D8 :| %36
w: bon vou- loir def-|fault|
w: ||
V:4
 D,8 | F,4 G,4 | D,4 D,4 | F,6 C,2 | D,2 E,2 F,4 | E,6 C,2 | D,2 D,2 A,,B,, C,D, | E,6 F,2 | %8
w: Don-|né me|fut des|cieulx à|ma nais- san-|ce, ung|tout seul point _ _ _|pour me|
w: Cest|u- ne|bas- s'et|pe- ti-|te puis- san-|ce, en|ung grant cueur _ _ _|_ rem-|
 C,2 D,2 A,,2 A,,2 | D,8 :: z2 D,2 D,2 D,2 | A,,4 A,4 | G,2 E,2 F,2 G,2 | C,6 C,2 | D,4 E,4 | %15
w: fai- * re dou-|loir,|Tan- dant tous-|iours plus|à fai- re va-|loir aul-|tre que|
w: ply de grant vou-|loir.||||||
 A,,4 z4 | E,8 | A,6 E,2 | F,2 C,2 D,4 | A,,G,, A,,B,, C,2 C,2 | D,4 G,,4 | A,,4 z2 A,,2 | %22
w: soy,|O,|fem- me|for- tu- né-|e, _ _ _ _ con-|ten- te|toy car|
w: |||||||
 C,2 C,2 D,4 | E,4 F,E, F,G, | A,4 A,4- | A,2 E,2 F,4 | E,2 E,2 E,2 E,2 | F,2 C,2 D,4 | %28
w: en- co- re|mieulx vault _ _ _|_ ung|_ grant vou-|loir sans puis- san-|ce don- né-|
w: ||||||
 C,4 z2 E,2 | E,2 E,2 F,4- | F,2 C,2 D,2 D,2 |"^#" E,2 E,2 A,,4 | z2 A,,2 A,,2 A,,2 | _B,,6 F,,2 | %34
w: e que|grant puis- san-|* ce'où bon vou-|loir def- fault,|que grant puis-|san- ce'où|
w: ||||||
 G,,2 G,,2 A,,2 A,,2 | D,8 :| %36
w: bon vou- loir def-|fault.|
w: ||

